dist/img/svg/icon-menu-warning.svg

<svg width="13" height="10" viewBox="0 0 13 10" fill="none" xmlns="http://www.w3.org/2000/svg">
<path d="M6.49768 9.98789C4.44563 9.98789 2.39284 9.98858 0.340784 9.98581C0.228841 9.98581 0.0754632 10.0414 0.0151299 9.92886C-0.0437495 9.81914 0.0892744 9.72678 0.148881 9.63581C2.19658 6.50039 4.24573 3.36706 6.29633 0.233723C6.50277 -0.0815543 6.50423 -0.0766932 6.70921 0.237196C8.76273 3.37817 10.817 6.51914 12.8697 9.66081C12.925 9.74483 13.0449 9.82956 12.9839 9.93372C12.9243 10.0358 12.7847 9.98789 12.6815 9.98789C10.62 9.99067 8.55846 9.98997 6.49768 9.98997V9.98789ZM6.4846 8.70108C6.4846 8.70317 6.4846 8.70525 6.4846 8.70733C7.79012 8.70733 9.09565 8.70525 10.4012 8.70942C10.6345 8.71011 10.6134 8.63025 10.516 8.48233C9.23376 6.52747 7.95586 4.57192 6.67578 2.61636C6.50568 2.35664 6.49768 2.35595 6.32686 2.61567C5.69445 3.57747 5.06568 4.54136 4.43545 5.50456C3.78559 6.49692 3.13719 7.48997 2.48516 8.48094C2.39066 8.624 2.3565 8.71358 2.59638 8.70872C3.06741 8.70039 3.53917 8.70178 4.01094 8.70108C4.83525 8.70039 5.66029 8.70108 6.4846 8.70108Z" fill="white"/>
<path d="M7.17113 6.27369C7.17113 6.73272 7.16096 7.19174 7.1755 7.65077C7.18276 7.88272 7.08899 7.95911 6.85784 7.94869C6.60487 7.93688 6.35046 7.94522 6.09677 7.94869C5.92376 7.95077 5.82781 7.89661 5.82926 7.70911C5.83435 6.75633 5.83435 5.80355 5.82854 4.85077C5.82708 4.65702 5.90995 4.58966 6.10476 4.59591C6.37663 4.60494 6.64849 4.60424 6.92035 4.59661C7.10935 4.59105 7.17695 4.66952 7.17477 4.84452C7.16895 5.32091 7.17259 5.7973 7.17259 6.27369H7.17113Z" fill="white"/>
</svg>

<svg width="13" height="10" viewBox="0 0 13 10" fill="none" xmlns="http://www.w3.org/2000/svg"><path d="M6.498 9.988c-2.052 0-4.105 0-6.157-.002-.112 0-.266.055-.326-.057-.059-.11.074-.202.134-.293C2.197 6.5 4.246 3.367 6.296.234c.207-.316.208-.31.413.003 2.054 3.141 4.108 6.282 6.16 9.424.056.084.176.169.115.273-.06.102-.2.054-.303.054-2.061.003-4.123.002-6.183.002v-.002zM6.485 8.7v.006c1.305 0 2.61-.002 3.916.002.233.001.212-.079.115-.227-1.282-1.955-2.56-3.91-3.84-5.866-.17-.26-.178-.26-.35 0-.632.961-1.26 1.925-1.89 2.889-.65.992-1.299 1.985-1.95 2.976-.095.143-.13.233.11.228.471-.009.943-.007 1.415-.008h2.474z" fill="#fff"/><path d="M7.171 6.274c0 .459-.01.918.005 1.377.007.232-.087.308-.318.298-.253-.012-.508-.004-.761 0-.173.002-.27-.052-.268-.24.005-.953.005-1.905 0-2.858-.002-.194.081-.261.276-.255.272.009.543.008.815 0 .19-.005.257.074.255.249-.006.476-.002.952-.002 1.429H7.17z" fill="#fff"/></svg>
